X:21
T:Recruiting Sergeant (with seconds). JBut.114, The
B:John Buttrey MS, poss. Lincolnshire, early 19thC
S:https://buttreymilitarysocialtunes1800.wordpress.com/
M:C|
L:1/8
Q:1/2=80
Z:Village Music Project, Peter Dunk/Mike Hicken 2019
K:G
V:1
(Bc)|dBdB G2AB|(cA)(FA) D2 (Bc)|dgfe dcBA|B2G>G G2:|
|:(Bc)|dBec d2 Bc|dBec d2 Bc|dBgf edcB|A2A>A A2 Bc|
dBdB G2(AB)|(cA)(FA) D2 (Bc)|dgfe dcBA|B2 G>G G2:|
V:2
GA|BGdB G2 FG|BdAFD2 GA|Bedc BAGF|G2B>B B2:|
|:GA|BGcA B2GA|BGec B2GA|BGBd cBAG|D2D>DD2GA|
BGdB G2FG|Bd"^A"AF D2GA|Bedc BAGF|G2B>B B2:|

